report_00007_2020-12-11T15:55:29.892Z/bootup-time/comparison/line/5_vs_6.svg

<svg width="640" height="500" xmlns="http://www.w3.org/2000/svg" xmlns:xlink="http://www.w3.org/1999/xlink"><path fill="#fff" d="M0 0h640v500H0z"/><defs><path id="d" stroke-width=".222" stroke="currentColor" d="M-1-1h2v2h-2z"/><path id="b" stroke-width=".222" stroke="currentColor" d="M0-1.33l-1.33 2h2.66z"/><path id="f" stroke-width=".222" stroke="currentColor" d="M0 1.33L1.265.411.782-1.067l-1.564-.009-.483 1.487z"/><use xlink:href="#b" id="c" stroke="currentColor" transform="rotate(180)"/><use xlink:href="#d" id="e" stroke="currentColor" transform="rotate(45)"/><circle id="a" stroke-width=".222" stroke="currentColor" cx="0" cy="0" r="1"/></defs><g fill="none" color="#000" stroke="currentColor"><path stroke="#000" d="M45.6 382h9m560.4 0h-9"/><text transform="translate(37.3 385.9)" stroke="none" fill="#000" font-family="Arial" font-size="12" text-anchor="end"><tspan>40</tspan></text></g><g fill="none" color="#000" stroke="currentColor"><path stroke="#000" d="M45.6 344.5h9m560.4 0h-9"/><text transform="translate(37.3 348.4)" stroke="none" fill="#000" font-family="Arial" font-size="12" text-anchor="end"><tspan>41</tspan></text></g><g fill="none" color="#000" stroke="currentColor"><path stroke="#000" d="M45.6 307.1h9m560.4 0h-9"/><text transform="translate(37.3 311)" stroke="none" fill="#000" font-family="Arial" font-size="12" text-anchor="end"><tspan>42</tspan></text></g><g fill="none" color="#000" stroke="currentColor"><path stroke="#000" d="M45.6 269.7h9m560.4 0h-9"/><text transform="translate(37.3 273.6)" stroke="none" fill="#000" font-family="Arial" font-size="12" text-anchor="end"><tspan>43</tspan></text></g><g fill="none" color="#000" stroke="currentColor"><path stroke="#000" d="M45.6 232.2h9m560.4 0h-9"/><text transform="translate(37.3 236.1)" stroke="none" fill="#000" font-family="Arial" font-size="12" text-anchor="end"><tspan>44</tspan></text></g><g fill="none" color="#000" stroke="currentColor"><path stroke="#000" d="M45.6 194.8h9m560.4 0h-9"/><text transform="translate(37.3 198.7)" stroke="none" fill="#000" font-family="Arial" font-size="12" text-anchor="end"><tspan>45</tspan></text></g><g fill="none" color="#000" stroke="currentColor"><path stroke="#000" d="M45.6 157.4h9m560.4 0h-9"/><text transform="translate(37.3 161.3)" stroke="none" fill="#000" font-family="Arial" font-size="12" text-anchor="end"><tspan>46</tspan></text></g><g fill="none" color="#000" stroke="currentColor"><path stroke="#000" d="M45.6 119.9h9m560.4 0h-9"/><text transform="translate(37.3 123.8)" stroke="none" fill="#000" font-family="Arial" font-size="12" text-anchor="end"><tspan>47</tspan></text></g><g fill="none" color="#000" stroke="currentColor"><path stroke="#000" d="M45.6 82.5h9m560.4 0h-9"/><text transform="translate(37.3 86.4)" stroke="none" fill="#000" font-family="Arial" font-size="12" text-anchor="end"><tspan>48</tspan></text></g><g fill="none" color="#000" stroke="currentColor"><path stroke="#000" d="M45.6 45.1h9m560.4 0h-9"/><text transform="translate(37.3 49)" stroke="none" fill="#000" font-family="Arial" font-size="12" text-anchor="end"><tspan>49</tspan></text></g><g fill="none" color="#000" stroke="currentColor"><path stroke="#000" d="M45.6 392v-9m0-364.9v9"/><text transform="translate(45.6 413.9)" stroke="none" fill="#000" font-family="Arial" font-size="12" text-anchor="middle"><tspan>0</tspan></text></g><g fill="none" color="#000" stroke="currentColor"><path stroke="#000" d="M103.1 392v-9m0-364.9v9"/><text transform="translate(103.1 413.9)" stroke="none" fill="#000" font-family="Arial" font-size="12" text-anchor="middle"><tspan>10</tspan></text></g><g fill="none" color="#000" stroke="currentColor"><path stroke="#000" d="M160.6 392v-9m0-364.9v9"/><text transform="translate(160.6 413.9)" stroke="none" fill="#000" font-family="Arial" font-size="12" text-anchor="middle"><tspan>20</tspan></text></g><g fill="none" color="#000" stroke="currentColor"><path stroke="#000" d="M218.1 392v-9m0-364.9v9"/><text transform="translate(218.1 413.9)" stroke="none" fill="#000" font-family="Arial" font-size="12" text-anchor="middle"><tspan>30</tspan></text></g><g fill="none" color="#000" stroke="currentColor"><path stroke="#000" d="M275.7 392v-9m0-364.9v9"/><text transform="translate(275.7 413.9)" stroke="none" fill="#000" font-family="Arial" font-size="12" text-anchor="middle"><tspan>40</tspan></text></g><g fill="none" color="#000" stroke="currentColor"><path stroke="#000" d="M333.2 392v-9m0-364.9v9"/><text transform="translate(333.2 413.9)" stroke="none" fill="#000" font-family="Arial" font-size="12" text-anchor="middle"><tspan>50</tspan></text></g><g fill="none" color="#000" stroke="currentColor"><path stroke="#000" d="M390.7 392v-9m0-364.9v9"/><text transform="translate(390.7 413.9)" stroke="none" fill="#000" font-family="Arial" font-size="12" text-anchor="middle"><tspan>60</tspan></text></g><g fill="none" color="#000" stroke="currentColor"><path stroke="#000" d="M448.2 392v-9m0-364.9v9"/><text transform="translate(448.2 413.9)" stroke="none" fill="#000" font-family="Arial" font-size="12" text-anchor="middle"><tspan>70</tspan></text></g><g fill="none" color="#000" stroke="currentColor"><path stroke="#000" d="M505.7 392v-9m0-364.9v9"/><text transform="translate(505.7 413.9)" stroke="none" fill="#000" font-family="Arial" font-size="12" text-anchor="middle"><tspan>80</tspan></text></g><g fill="none" color="#000" stroke="currentColor"><path stroke="#000" d="M563.2 392v-9m0-364.9v9"/><text transform="translate(563.2 413.9)" stroke="none" fill="#000" font-family="Arial" font-size="12" text-anchor="middle"><tspan>90</tspan></text></g><path stroke="#000" d="M45.6 18.1V392H615V18.1H45.6z" fill="none" color="#000"/><text transform="translate(429.5 431.9)" stroke="none" fill="#000" font-family="Arial" font-size="12" text-anchor="end" color="#000"><tspan>pages+cached+noexternal</tspan></text><path stroke="#9400D3" d="M437.8 428H480M45.6 240.6l5.8-27.7 5.7-49.4 5.8 65.9 5.7-19.9 5.8-13.2 5.7 6.3 5.8 63.8 5.7-27.4 5.8-24.6 5.7 3.8 5.8 11 5.7 10.8 5.8 14.7 5.7 22.6 5.8-101.8 5.7 32.5 5.8-10.4 5.7 24 5.8-84 5.7 70.8 5.8 13.5 5.7-34.6 5.8 13.5 5.7 42.1 5.8-43.2 5.7 50.5 5.8 21.1 5.7-53.7 5.8.1 5.7-29.5 5.8 3.6 5.7-43.6 5.8 65.6 5.8-25.9 5.7-2.7 5.8 122 5.7-110.2 5.8 43.3 5.7-14.5 5.8 21.6 5.7-22.8 5.8-9 5.7-104.5 5.8 177.9 5.7-107.5 5.8 69.1 5.7-10.6 5.8 3.6 5.7-25 5.8-3.9 5.7 5.5 5.8-15.4 5.7-5.4 5.8-51.2 5.7 72.2 5.8 50.8 5.7-32.4 5.8-18.6 5.7-41.9 5.8 21.1 5.7 17.1 5.8-12.3 5.7-13.3 5.8-18.1 5.7 40.9 5.8 40.8L431 203l5.7 3.3 5.8 23.2 5.7-54.9 5.8 75 5.7-54.5 5.8 24.8 5.7 26.3 5.8-36.9 5.7 18.1 5.8-11.2 5.7 22.9 5.8-34.3 5.7 14.1 5.8-6.9 5.7 32.4 5.8-40.9 5.7 32.8 5.8-21.7 5.7 22.7 5.8-51.5 5.7 13.2 5.8 7 5.7 21.3 5.8-38.9 5.7-14.1 5.8 62.4 5.7-9.7 5.8 9.7 5.7-28.4 5.8 35 5.7-82.2 5.8 32.3" fill="none" color="#000"/><text transform="translate(429.5 449.9)" stroke="none" fill="#000" font-family="Arial" font-size="12" text-anchor="end" color="#000"><tspan>pages+cached+noexternal+nofonts</tspan></text><path stroke="#009E73" d="M437.8 446H480M45.6 163.6l5.8 52 5.7-33.5 5.8-34.3 5.7 58.1 5.8 10.6 5.7-51.5 5.8 7.3 5.7 8 5.8 24.1 5.7-57.8 5.8 20.6 5.7 22.4 5.8 3.8 5.7-5.3 5.8-.6 5.7-2.1 5.8 11 5.7-48 5.8 35.9 5.7 63.6 5.8-31.8 5.7 168.7 5.8-210.8 5.7-19.5 5.8-2.4 5.7 6.3 5.8 58.9 5.7 11 5.8-4.2 5.7-13.4 5.8 3 5.7 10 5.8-90.1 5.8 122.4 5.7-94.3 5.8 48.2 5.7 20.8 5.8-83.5 5.7 84.6 5.8-23.4 5.7-109.6 5.8 137.6 5.7-42.2 5.8 37.9 5.7-7.8 5.8-19.5 5.7-25.9 5.8 57.2 5.7-80.2 5.8 44.7 5.7 67.7 5.8-60.8 5.7-34.1 5.8 10 5.7-77.9 5.8 35.2 5.7 80 5.8-44 5.7 23.2 5.8 58.5 5.7 47.3 5.8-148.8 5.7 50.2 5.8-86.3 5.7 90.8 5.8-63.2 5.8 82.5 5.7 5.7 5.8-50.9 5.7 55.4 5.8-72.2 5.7-87.2 5.8 142.6 5.7 17.5 5.8-53.6 5.7-9.4 5.8 42.2 5.7.3 5.8-98.8 5.7 73.8 5.8 7.5 5.7 31.7 5.8-20.8 5.7-4.9 5.8-72.4 5.7 26.5 5.8 11.3 5.7 57.2 5.8 54.3 5.7-93.4 5.8-45.7 5.7 91.8 5.8 5.3 5.7 34.2 5.8-112.1 5.7-141.5 5.8 178 5.7 8.3 5.8 6.4" fill="none" color="#000"/><text transform="translate(429.5 467.9)" stroke="none" fill="#000" font-family="Arial" font-size="12" text-anchor="end" color="#000"><tspan>score p10=1282</tspan></text><path stroke="#56B4E9" d="M437.8 464H480" fill="none" color="#000"/><g><text transform="translate(429.5 485.9)" stroke="none" fill="#000" font-family="Arial" font-size="12" text-anchor="end" color="#000"><tspan>score median=3500</tspan></text><path stroke="#E69F00" d="M437.8 482H480" fill="none" color="#000"/></g><g fill="none" color="#000" stroke="currentColor"><path stroke="#000" d="M45.6 18.1V392H615V18.1H45.6z"/></g></svg>

<?xml version="1.0" encoding="utf-8"  standalone="no"?>
<svg 
 width="640" height="500"
 viewBox="0 0 640 500"
 xmlns="http://www.w3.org/2000/svg"
 xmlns:xlink="http://www.w3.org/1999/xlink"
>

<title>Gnuplot</title>
<desc>Produced by GNUPLOT 5.4 patchlevel 0 </desc>

<g id="gnuplot_canvas">

<rect x="0" y="0" width="640" height="500" fill="#ffffff"/>
<defs>

	<circle id='gpDot' r='0.5' stroke-width='0.5' stroke='currentColor'/>
	<path id='gpPt0' stroke-width='0.222' stroke='currentColor' d='M-1,0 h2 M0,-1 v2'/>
	<path id='gpPt1' stroke-width='0.222' stroke='currentColor' d='M-1,-1 L1,1 M1,-1 L-1,1'/>
	<path id='gpPt2' stroke-width='0.222' stroke='currentColor' d='M-1,0 L1,0 M0,-1 L0,1 M-1,-1 L1,1 M-1,1 L1,-1'/>
	<rect id='gpPt3' stroke-width='0.222' stroke='currentColor' x='-1' y='-1' width='2' height='2'/>
	<rect id='gpPt4' stroke-width='0.222' stroke='currentColor' fill='currentColor' x='-1' y='-1' width='2' height='2'/>
	<circle id='gpPt5' stroke-width='0.222' stroke='currentColor' cx='0' cy='0' r='1'/>
	<use xlink:href='#gpPt5' id='gpPt6' fill='currentColor' stroke='none'/>
	<path id='gpPt7' stroke-width='0.222' stroke='currentColor' d='M0,-1.33 L-1.33,0.67 L1.33,0.67 z'/>
	<use xlink:href='#gpPt7' id='gpPt8' fill='currentColor' stroke='none'/>
	<use xlink:href='#gpPt7' id='gpPt9' stroke='currentColor' transform='rotate(180)'/>
	<use xlink:href='#gpPt9' id='gpPt10' fill='currentColor' stroke='none'/>
	<use xlink:href='#gpPt3' id='gpPt11' stroke='currentColor' transform='rotate(45)'/>
	<use xlink:href='#gpPt11' id='gpPt12' fill='currentColor' stroke='none'/>
	<path id='gpPt13' stroke-width='0.222' stroke='currentColor' d='M0,1.330 L1.265,0.411 L0.782,-1.067 L-0.782,-1.076 L-1.265,0.411 z'/>
	<use xlink:href='#gpPt13' id='gpPt14' fill='currentColor' stroke='none'/>
	<filter id='textbox' filterUnits='objectBoundingBox' x='0' y='0' height='1' width='1'>
	  <feFlood flood-color='#FFFFFF' flood-opacity='1' result='bgnd'/>
	  <feComposite in='SourceGraphic' in2='bgnd' operator='atop'/>
	</filter>
	<filter id='greybox' filterUnits='objectBoundingBox' x='0' y='0' height='1' width='1'>
	  <feFlood flood-color='lightgrey' flood-opacity='1' result='grey'/>
	  <feComposite in='SourceGraphic' in2='grey' operator='atop'/>
	</filter>
</defs>
<g fill="none" color="#FFFFFF" stroke="black" stroke-width="1.00" stroke-linecap="butt" stroke-linejoin="miter">
</g>
<g fill="none" color="black" stroke="currentColor" stroke-width="1.00" stroke-linecap="butt" stroke-linejoin="miter">
	<path stroke='black'  d='M45.6,382.0 L54.6,382.0 M615.0,382.0 L606.0,382.0  '/>	<g transform="translate(37.3,385.9)" stroke="none" fill="black" font-family="Arial" font-size="12.00"  text-anchor="end">
		<text><tspan font-family="Arial" > 40</tspan></text>
	</g>
</g>
<g fill="none" color="black" stroke="currentColor" stroke-width="1.00" stroke-linecap="butt" stroke-linejoin="miter">
	<path stroke='black'  d='M45.6,344.5 L54.6,344.5 M615.0,344.5 L606.0,344.5  '/>	<g transform="translate(37.3,348.4)" stroke="none" fill="black" font-family="Arial" font-size="12.00"  text-anchor="end">
		<text><tspan font-family="Arial" > 41</tspan></text>
	</g>
</g>
<g fill="none" color="black" stroke="currentColor" stroke-width="1.00" stroke-linecap="butt" stroke-linejoin="miter">
	<path stroke='black'  d='M45.6,307.1 L54.6,307.1 M615.0,307.1 L606.0,307.1  '/>	<g transform="translate(37.3,311.0)" stroke="none" fill="black" font-family="Arial" font-size="12.00"  text-anchor="end">
		<text><tspan font-family="Arial" > 42</tspan></text>
	</g>
</g>
<g fill="none" color="black" stroke="currentColor" stroke-width="1.00" stroke-linecap="butt" stroke-linejoin="miter">
	<path stroke='black'  d='M45.6,269.7 L54.6,269.7 M615.0,269.7 L606.0,269.7  '/>	<g transform="translate(37.3,273.6)" stroke="none" fill="black" font-family="Arial" font-size="12.00"  text-anchor="end">
		<text><tspan font-family="Arial" > 43</tspan></text>
	</g>
</g>
<g fill="none" color="black" stroke="currentColor" stroke-width="1.00" stroke-linecap="butt" stroke-linejoin="miter">
	<path stroke='black'  d='M45.6,232.2 L54.6,232.2 M615.0,232.2 L606.0,232.2  '/>	<g transform="translate(37.3,236.1)" stroke="none" fill="black" font-family="Arial" font-size="12.00"  text-anchor="end">
		<text><tspan font-family="Arial" > 44</tspan></text>
	</g>
</g>
<g fill="none" color="black" stroke="currentColor" stroke-width="1.00" stroke-linecap="butt" stroke-linejoin="miter">
	<path stroke='black'  d='M45.6,194.8 L54.6,194.8 M615.0,194.8 L606.0,194.8  '/>	<g transform="translate(37.3,198.7)" stroke="none" fill="black" font-family="Arial" font-size="12.00"  text-anchor="end">
		<text><tspan font-family="Arial" > 45</tspan></text>
	</g>
</g>
<g fill="none" color="black" stroke="currentColor" stroke-width="1.00" stroke-linecap="butt" stroke-linejoin="miter">
	<path stroke='black'  d='M45.6,157.4 L54.6,157.4 M615.0,157.4 L606.0,157.4  '/>	<g transform="translate(37.3,161.3)" stroke="none" fill="black" font-family="Arial" font-size="12.00"  text-anchor="end">
		<text><tspan font-family="Arial" > 46</tspan></text>
	</g>
</g>
<g fill="none" color="black" stroke="currentColor" stroke-width="1.00" stroke-linecap="butt" stroke-linejoin="miter">
	<path stroke='black'  d='M45.6,119.9 L54.6,119.9 M615.0,119.9 L606.0,119.9  '/>	<g transform="translate(37.3,123.8)" stroke="none" fill="black" font-family="Arial" font-size="12.00"  text-anchor="end">
		<text><tspan font-family="Arial" > 47</tspan></text>
	</g>
</g>
<g fill="none" color="black" stroke="currentColor" stroke-width="1.00" stroke-linecap="butt" stroke-linejoin="miter">
	<path stroke='black'  d='M45.6,82.5 L54.6,82.5 M615.0,82.5 L606.0,82.5  '/>	<g transform="translate(37.3,86.4)" stroke="none" fill="black" font-family="Arial" font-size="12.00"  text-anchor="end">
		<text><tspan font-family="Arial" > 48</tspan></text>
	</g>
</g>
<g fill="none" color="black" stroke="currentColor" stroke-width="1.00" stroke-linecap="butt" stroke-linejoin="miter">
	<path stroke='black'  d='M45.6,45.1 L54.6,45.1 M615.0,45.1 L606.0,45.1  '/>	<g transform="translate(37.3,49.0)" stroke="none" fill="black" font-family="Arial" font-size="12.00"  text-anchor="end">
		<text><tspan font-family="Arial" > 49</tspan></text>
	</g>
</g>
<g fill="none" color="black" stroke="currentColor" stroke-width="1.00" stroke-linecap="butt" stroke-linejoin="miter">
	<path stroke='black'  d='M45.6,392.0 L45.6,383.0 M45.6,18.1 L45.6,27.1  '/>	<g transform="translate(45.6,413.9)" stroke="none" fill="black" font-family="Arial" font-size="12.00"  text-anchor="middle">
		<text><tspan font-family="Arial" > 0</tspan></text>
	</g>
</g>
<g fill="none" color="black" stroke="currentColor" stroke-width="1.00" stroke-linecap="butt" stroke-linejoin="miter">
	<path stroke='black'  d='M103.1,392.0 L103.1,383.0 M103.1,18.1 L103.1,27.1  '/>	<g transform="translate(103.1,413.9)" stroke="none" fill="black" font-family="Arial" font-size="12.00"  text-anchor="middle">
		<text><tspan font-family="Arial" > 10</tspan></text>
	</g>
</g>
<g fill="none" color="black" stroke="currentColor" stroke-width="1.00" stroke-linecap="butt" stroke-linejoin="miter">
	<path stroke='black'  d='M160.6,392.0 L160.6,383.0 M160.6,18.1 L160.6,27.1  '/>	<g transform="translate(160.6,413.9)" stroke="none" fill="black" font-family="Arial" font-size="12.00"  text-anchor="middle">
		<text><tspan font-family="Arial" > 20</tspan></text>
	</g>
</g>
<g fill="none" color="black" stroke="currentColor" stroke-width="1.00" stroke-linecap="butt" stroke-linejoin="miter">
	<path stroke='black'  d='M218.1,392.0 L218.1,383.0 M218.1,18.1 L218.1,27.1  '/>	<g transform="translate(218.1,413.9)" stroke="none" fill="black" font-family="Arial" font-size="12.00"  text-anchor="middle">
		<text><tspan font-family="Arial" > 30</tspan></text>
	</g>
</g>
<g fill="none" color="black" stroke="currentColor" stroke-width="1.00" stroke-linecap="butt" stroke-linejoin="miter">
	<path stroke='black'  d='M275.7,392.0 L275.7,383.0 M275.7,18.1 L275.7,27.1  '/>	<g transform="translate(275.7,413.9)" stroke="none" fill="black" font-family="Arial" font-size="12.00"  text-anchor="middle">
		<text><tspan font-family="Arial" > 40</tspan></text>
	</g>
</g>
<g fill="none" color="black" stroke="currentColor" stroke-width="1.00" stroke-linecap="butt" stroke-linejoin="miter">
	<path stroke='black'  d='M333.2,392.0 L333.2,383.0 M333.2,18.1 L333.2,27.1  '/>	<g transform="translate(333.2,413.9)" stroke="none" fill="black" font-family="Arial" font-size="12.00"  text-anchor="middle">
		<text><tspan font-family="Arial" > 50</tspan></text>
	</g>
</g>
<g fill="none" color="black" stroke="currentColor" stroke-width="1.00" stroke-linecap="butt" stroke-linejoin="miter">
	<path stroke='black'  d='M390.7,392.0 L390.7,383.0 M390.7,18.1 L390.7,27.1  '/>	<g transform="translate(390.7,413.9)" stroke="none" fill="black" font-family="Arial" font-size="12.00"  text-anchor="middle">
		<text><tspan font-family="Arial" > 60</tspan></text>
	</g>
</g>
<g fill="none" color="black" stroke="currentColor" stroke-width="1.00" stroke-linecap="butt" stroke-linejoin="miter">
	<path stroke='black'  d='M448.2,392.0 L448.2,383.0 M448.2,18.1 L448.2,27.1  '/>	<g transform="translate(448.2,413.9)" stroke="none" fill="black" font-family="Arial" font-size="12.00"  text-anchor="middle">
		<text><tspan font-family="Arial" > 70</tspan></text>
	</g>
</g>
<g fill="none" color="black" stroke="currentColor" stroke-width="1.00" stroke-linecap="butt" stroke-linejoin="miter">
	<path stroke='black'  d='M505.7,392.0 L505.7,383.0 M505.7,18.1 L505.7,27.1  '/>	<g transform="translate(505.7,413.9)" stroke="none" fill="black" font-family="Arial" font-size="12.00"  text-anchor="middle">
		<text><tspan font-family="Arial" > 80</tspan></text>
	</g>
</g>
<g fill="none" color="black" stroke="currentColor" stroke-width="1.00" stroke-linecap="butt" stroke-linejoin="miter">
	<path stroke='black'  d='M563.2,392.0 L563.2,383.0 M563.2,18.1 L563.2,27.1  '/>	<g transform="translate(563.2,413.9)" stroke="none" fill="black" font-family="Arial" font-size="12.00"  text-anchor="middle">
		<text><tspan font-family="Arial" > 90</tspan></text>
	</g>
</g>
<g fill="none" color="black" stroke="currentColor" stroke-width="1.00" stroke-linecap="butt" stroke-linejoin="miter">
</g>
<g fill="none" color="black" stroke="currentColor" stroke-width="1.00" stroke-linecap="butt" stroke-linejoin="miter">
	<path stroke='black'  d='M45.6,18.1 L45.6,392.0 L615.0,392.0 L615.0,18.1 L45.6,18.1 Z  '/></g>
<g fill="none" color="black" stroke="currentColor" stroke-width="1.00" stroke-linecap="butt" stroke-linejoin="miter">
</g>
	<g id="gnuplot_plot_1" ><title>pages+cached+noexternal</title>
<g fill="none" color="black" stroke="currentColor" stroke-width="1.00" stroke-linecap="butt" stroke-linejoin="miter">
	<g transform="translate(429.5,431.9)" stroke="none" fill="black" font-family="Arial" font-size="12.00"  text-anchor="end">
		<text><tspan font-family="Arial" >pages+cached+noexternal</tspan></text>
	</g>
</g>
<g fill="none" color="black" stroke="currentColor" stroke-width="1.00" stroke-linecap="butt" stroke-linejoin="miter">
	<path stroke='rgb(148,   0, 211)'  d='M437.8,428.0 L480.0,428.0 M45.6,240.6 L51.4,212.9 L57.1,163.5 L62.9,229.4 L68.6,209.5 L74.4,196.3
		L80.1,202.6 L85.9,266.4 L91.6,239.0 L97.4,214.4 L103.1,218.2 L108.9,229.2 L114.6,240.0 L120.4,254.7
		L126.1,277.3 L131.9,175.5 L137.6,208.0 L143.4,197.6 L149.1,221.6 L154.9,137.6 L160.6,208.4 L166.4,221.9
		L172.1,187.3 L177.9,200.8 L183.6,242.9 L189.4,199.7 L195.1,250.2 L200.9,271.3 L206.6,217.6 L212.4,217.7
		L218.1,188.2 L223.9,191.8 L229.6,148.2 L235.4,213.8 L241.2,187.9 L246.9,185.2 L252.7,307.2 L258.4,197.0
		L264.2,240.3 L269.9,225.8 L275.7,247.4 L281.4,224.6 L287.2,215.6 L292.9,111.1 L298.7,289.0 L304.4,181.5
		L310.2,250.6 L315.9,240.0 L321.7,243.6 L327.4,218.6 L333.2,214.7 L338.9,220.2 L344.7,204.8 L350.4,199.4
		L356.2,148.2 L361.9,220.4 L367.7,271.2 L373.4,238.8 L379.2,220.2 L384.9,178.3 L390.7,199.4 L396.4,216.5
		L402.2,204.2 L407.9,190.9 L413.7,172.8 L419.4,213.7 L425.2,254.5 L431.0,203.0 L436.7,206.3 L442.5,229.5
		L448.2,174.6 L454.0,249.6 L459.7,195.1 L465.5,219.9 L471.2,246.2 L477.0,209.3 L482.7,227.4 L488.5,216.2
		L494.2,239.1 L500.0,204.8 L505.7,218.9 L511.5,212.0 L517.2,244.4 L523.0,203.5 L528.7,236.3 L534.5,214.6
		L540.2,237.3 L546.0,185.8 L551.7,199.0 L557.5,206.0 L563.2,227.3 L569.0,188.4 L574.7,174.3 L580.5,236.7
		L586.2,227.0 L592.0,236.7 L597.7,208.3 L603.5,243.3 L609.2,161.1 L615.0,193.4  '/></g>
	</g>
	<g id="gnuplot_plot_2" ><title>pages+cached+noexternal+nofonts</title>
<g fill="none" color="black" stroke="currentColor" stroke-width="1.00" stroke-linecap="butt" stroke-linejoin="miter">
	<g transform="translate(429.5,449.9)" stroke="none" fill="black" font-family="Arial" font-size="12.00"  text-anchor="end">
		<text><tspan font-family="Arial" >pages+cached+noexternal+nofonts</tspan></text>
	</g>
</g>
<g fill="none" color="black" stroke="currentColor" stroke-width="1.00" stroke-linecap="butt" stroke-linejoin="miter">
	<path stroke='rgb(  0, 158, 115)'  d='M437.8,446.0 L480.0,446.0 M45.6,163.6 L51.4,215.6 L57.1,182.1 L62.9,147.8 L68.6,205.9 L74.4,216.5
		L80.1,165.0 L85.9,172.3 L91.6,180.3 L97.4,204.4 L103.1,146.6 L108.9,167.2 L114.6,189.6 L120.4,193.4
		L126.1,188.1 L131.9,187.5 L137.6,185.4 L143.4,196.4 L149.1,148.4 L154.9,184.3 L160.6,247.9 L166.4,216.1
		L172.1,384.8 L177.9,174.0 L183.6,154.5 L189.4,152.1 L195.1,158.4 L200.9,217.3 L206.6,228.3 L212.4,224.1
		L218.1,210.7 L223.9,213.7 L229.6,223.7 L235.4,133.6 L241.2,256.0 L246.9,161.7 L252.7,209.9 L258.4,230.7
		L264.2,147.2 L269.9,231.8 L275.7,208.4 L281.4,98.8 L287.2,236.4 L292.9,194.2 L298.7,232.1 L304.4,224.3
		L310.2,204.8 L315.9,178.9 L321.7,236.1 L327.4,155.9 L333.2,200.6 L338.9,268.3 L344.7,207.5 L350.4,173.4
		L356.2,183.4 L361.9,105.5 L367.7,140.7 L373.4,220.7 L379.2,176.7 L384.9,199.9 L390.7,258.4 L396.4,305.7
		L402.2,156.9 L407.9,207.1 L413.7,120.8 L419.4,211.6 L425.2,148.4 L431.0,230.9 L436.7,236.6 L442.5,185.7
		L448.2,241.1 L454.0,168.9 L459.7,81.7 L465.5,224.3 L471.2,241.8 L477.0,188.2 L482.7,178.8 L488.5,221.0
		L494.2,221.3 L500.0,122.5 L505.7,196.3 L511.5,203.8 L517.2,235.5 L523.0,214.7 L528.7,209.8 L534.5,137.4
		L540.2,163.9 L546.0,175.2 L551.7,232.4 L557.5,286.7 L563.2,193.3 L569.0,147.6 L574.7,239.4 L580.5,244.7
		L586.2,278.9 L592.0,166.8 L597.7,25.3 L603.5,203.3 L609.2,211.6 L615.0,218.0  '/></g>
	</g>
	<g id="gnuplot_plot_3" ><title>score p10=1282</title>
<g fill="none" color="black" stroke="currentColor" stroke-width="1.00" stroke-linecap="butt" stroke-linejoin="miter">
	<g transform="translate(429.5,467.9)" stroke="none" fill="black" font-family="Arial" font-size="12.00"  text-anchor="end">
		<text><tspan font-family="Arial" >score p10=1282</tspan></text>
	</g>
</g>
<g fill="none" color="black" stroke="currentColor" stroke-width="1.00" stroke-linecap="butt" stroke-linejoin="miter">
	<path stroke='rgb( 86, 180, 233)'  d='M437.8,464.0 L480.0,464.0  '/></g>
	</g>
	<g id="gnuplot_plot_4" ><title>score median=3500</title>
<g fill="none" color="black" stroke="currentColor" stroke-width="1.00" stroke-linecap="butt" stroke-linejoin="miter">
	<g transform="translate(429.5,485.9)" stroke="none" fill="black" font-family="Arial" font-size="12.00"  text-anchor="end">
		<text><tspan font-family="Arial" >score median=3500</tspan></text>
	</g>
</g>
<g fill="none" color="black" stroke="currentColor" stroke-width="1.00" stroke-linecap="butt" stroke-linejoin="miter">
	<path stroke='rgb(230, 159,   0)'  d='M437.8,482.0 L480.0,482.0  '/></g>
	</g>
<g fill="none" color="#FFFFFF" stroke="rgb(230, 159,   0)" stroke-width="2.00" stroke-linecap="butt" stroke-linejoin="miter">
</g>
<g fill="none" color="black" stroke="currentColor" stroke-width="2.00" stroke-linecap="butt" stroke-linejoin="miter">
</g>
<g fill="none" color="black" stroke="black" stroke-width="1.00" stroke-linecap="butt" stroke-linejoin="miter">
</g>
<g fill="none" color="black" stroke="currentColor" stroke-width="1.00" stroke-linecap="butt" stroke-linejoin="miter">
	<path stroke='black'  d='M45.6,18.1 L45.6,392.0 L615.0,392.0 L615.0,18.1 L45.6,18.1 Z  '/></g>
<g fill="none" color="black" stroke="currentColor" stroke-width="1.00" stroke-linecap="butt" stroke-linejoin="miter">
</g>
</g>
</svg>
